!!!COM: Clementi, Muzio
!!!CDT: 1752/01/23/-1832/03/10/
!!!ODT: ~1800///
!!!OTL: Sonata No. 3 in C Major, Op. 36, Mvmt. 2
!!!OPS: Op. 36
!!!ONM: No. 3
!!!OMV: 2. Un poco adagio
**kern	**kern	**dynam
*staff2	*staff1	*staff1/2
*Ipiano	*Ipiano	*Ipiano
*>[A,A,B,B]	*>[A,A,B,B]	*>[A,A,B,B]
*>A	*>A	*>A
*clefF4	*clefG2	*clefG2
*k[f#]	*k[f#]	*k[f#]
*G:	*G:	*G:
*M2/2	*M2/2	*M2/2
*MM72	*MM72	*MM72
=1-	=1-	=1-
(4G\	4.g/	.
4d\	.	.
.	(8f#/	.
4B\	4.g/	.
4d\)	.	.
.	8a/	.
=2	=2	=2
(4G\	4.b\	.
4d\	.	.
.	8a/	.
4B\	2g/)	.
4d\)	.	.
=3	=3	=3
(4F#\	(4.dd\	.
4d\	.	.
.	8ee\	p
4A\	4.dd\	.
4d\)	.	.
.	8cc\	.
=4	=4	=4
(4G\	4.b\	.
4d\	.	.
.	8cc\	.
4B\	4dd\)	.
4d\)	4r	.
*clefG2	*	*
=5	=5	=5
4e/	4.gg\	.
4g/	.	.
.	8ff#\	.
4d/	8.gg\L	.
.	16ff#\k	.
4c/	8.gg\	.
.	16ff#\Jk	.
=6	=6	=6
4B/	4.gg\	f
4d/	.	.
.	8aa\	.
4g/	8.bb\L	.
.	16aa\k	.
4r	8.gg\	.
.	16ff#\Jk	.
*clefF4	*	*
=7	=7	=7
2c\	8.ee\L	p
.	16dd\k	.
.	8.cc\	.
.	16b\Jk	.
2c#\	8.a/L	.
.	16g/k	.
.	8.f#/	.
.	16g/Jk	.
=8	=8	=8
4d\	2g/ 2b/	.
4D\	.	.
4d\	4f#/ 4a/	.
4r	4r	.
*clefG2	*	*
=9:|!|:	=9:|!|:	=9:|!|:
*>B	*>B	*>B
4a/	4.cc\	.
4d/	.	.
.	8dd\	.
4a/	4.cc\	.
4g/	.	.
.	8b\	.
=10	=10	=10
4f#/	4.a/	.
4d/	.	.
.	8b\	.
4a/	4.cc\	.
4d/	.	.
.	8cc#\	.
=11	=11	=11
4b\	4.dd\	.
4d/	.	.
.	8ee\	.
4b\	4.dd\	.
4a/	.	.
.	8ccn\	.
=12	=12	=12
4g/	4.b\	.
4d/	.	.
.	8cc\	.
4b\	4dd\	.
4d/	4r	.
=13	=13	=13
4e/	4.gg\	.
4g/	.	.
.	8ff#\	.
4d/	8.gg\L	.
.	16aa\k	.
4c/	8.bb\	.
.	16ccc\Jk	.
=14	=14	=14
4B/	4.ddd\	.
4d/	.	.
.	8ccc\	.
4g/	8.bb\L	.
.	16aa\k	.
4r	8.gg\	.
.	16ff#\Jk	.
*clefF4	*	*
=15	=15	=15
2C/	8.ee\L	p
.	16dd\k	.
.	8.cc\	.
.	16b\Jk	.
.	bq/	.
4D\ 4c\	8.a/L	.
.	16g/k	.
4D\ 4c\	8.a/	.
.	16b/Jk	.
=16	=16	=16
[2G\	(2c/ 2f#/ 2a/	.
4G\]	4B/) 4g/	.
4r	4r	.
==:|!	==:|!	==:|!
*-	*-	*-
!!!ENC: Craig Stuart Sapp
!!!END: 2004/11/26/
